X: 462
T: Sibao langong
%%abc-version 2.0
%%abcx-abcm2ps-target-version 5.9.1 (29 Sep 2008)
%%abc-creator hum2abc beta
%%abcx-conversion-date 2013/10/02 07:52:30
%%abc-edited-by Helmut Schaffrath
%%humdrum-veritas 3819788828
%%humdrum-veritas-data 239031240
%%continueall 1
%%barnumbers 0
L: 1/8
M: 2/4
K: F
F2G A [I:setbarnb 1]| 
G F D C | 
c3f | 
d c A c | 
ff2c | 
d c A G | 
F3G | 
F2z2 | 
G2G2 | 
c2f d | 
c Ac2 | 
G FD2 | 
BB2G | 
B G F D | 
C3D | 
C4 |]  



